src/standard/online-collaboration.svg

<svg xmlns="http://www.w3.org/2000/svg" viewBox="0 0 36 36">
  <path d="M6 27.62h24a.62.62 0 0 0 .62-.62V12a.62.62 0 0 0-.62-.62h-5a.62.62 0 0 0 0 1.24h4.38v13.76h-1.82a4.11 4.11 0 0 0-2.19-3 2.62 2.62 0 1 0-3.74 0 4.11 4.11 0 0 0-2.19 3h-2.88a4.11 4.11 0 0 0-2.19-3 2.62 2.62 0 1 0-3.74 0 4.11 4.11 0 0 0-2.19 3H6.62V12.62H11a.62.62 0 0 0 0-1.24H6a.62.62 0 0 0-.62.62v15a.62.62 0 0 0 .62.62Zm16.12-6.12a1.38 1.38 0 0 1 2.75 0 1.38 1.38 0 0 1-2.75 0Zm1.38 2.62a2.87 2.87 0 0 1 2.8 2.26h-5.6a2.87 2.87 0 0 1 2.8-2.26ZM11.12 21.5a1.38 1.38 0 0 1 2.75 0 1.38 1.38 0 0 1-2.75 0Zm1.38 2.62a2.87 2.87 0 0 1 2.8 2.26H9.7a2.87 2.87 0 0 1 2.8-2.26ZM32 29.38H4a.62.62 0 0 0 0 1.24h28a.62.62 0 0 0 0-1.24Z"/>
  <path d="M15.07 16.41a1.42 1.42 0 0 0 1.36 1h3.14a1.42 1.42 0 0 0 1.36-1l.87-2.6a5.07 5.07 0 1 0-7.6 0Zm4.68-.41a.2.2 0 0 1-.18.12h-3.14a.2.2 0 0 1-.18-.12l-.61-1.86h4.72ZM18 6.62a3.84 3.84 0 0 1 2.92 6.29h-5.84A3.84 3.84 0 0 1 18 6.62Zm1 11.76h-2a.62.62 0 0 0 0 1.24h2a.62.62 0 0 0 0-1.24Z"/>
</svg>

<svg id="ad188636-9634-4f63-ac3c-20ee00097fd9" data-name="Icon" xmlns="http://www.w3.org/2000/svg" viewBox="0 0 36 36"><title>Online collaboration icon - Black</title>
<desc>video call, zoom, meet, skype, miro, coworker, communicate, remote, home, media and documents</desc>
<metadata><?xpacket begin="﻿" id="W5M0MpCehiHzreSzNTczkc9d"?>
<x:xmpmeta xmlns:x="adobe:ns:meta/" x:xmptk="Adobe XMP Core 8.0-c001 1.000000, 0000/00/00-00:00:00        ">
   <rdf:RDF xmlns:rdf="http://www.w3.org/1999/02/22-rdf-syntax-ns#">
      <rdf:Description rdf:about=""
            xmlns:xmp="http://ns.adobe.com/xap/1.0/"
            xmlns:dc="http://purl.org/dc/elements/1.1/"
            xmlns:cq="http://www.day.com/jcr/cq/1.0"
            xmlns:tiff="http://ns.adobe.com/tiff/1.0/">
         <xmp:rhcc-effective-on>2023-12-08T17:37:13.003Z</xmp:rhcc-effective-on>
         <xmp:rhcc-metadata-complete-moderator>pending</xmp:rhcc-metadata-complete-moderator>
         <xmp:rhcc-translation-id>TRA7605d336-4690-4e18-b764-d30abfb460a1</xmp:rhcc-translation-id>
         <xmp:brand-content-type>Icon</xmp:brand-content-type>
         <xmp:CreateDate>2023-12-08T17:37:13.003Z</xmp:CreateDate>
         <xmp:rhcc-effective-on-set-on-upload>true</xmp:rhcc-effective-on-set-on-upload>
         <xmp:rhcc-metadata-complete-uploader>pending</xmp:rhcc-metadata-complete-uploader>
         <xmp:rhcc-file-last-modified>2023-12-08T17:40:52.760Z</xmp:rhcc-file-last-modified>
         <xmp:rhcc-audience>rhcc-audience:internal</xmp:rhcc-audience>
         <xmp:rhcc-rights-restricted>no</xmp:rhcc-rights-restricted>
         <xmp:brand-content-subtype>Icon</xmp:brand-content-subtype>
         <xmp:rhcc-derivative-id>DER7605d336-4690-4e18-b764-d30abfb460a1</xmp:rhcc-derivative-id>
         <xmp:brand-logo-color>Black</xmp:brand-logo-color>
         <xmp:rhcc-notify-portal-subscribers-on-change>yes</xmp:rhcc-notify-portal-subscribers-on-change>
         <dc:format>image/svg+xml</dc:format>
         <dc:modified>2024-02-09T20:20:59.157Z</dc:modified>
         <dc:title>
            <rdf:Alt>
               <rdf:li xml:lang="x-default">Online collaboration icon - Black</rdf:li>
            </rdf:Alt>
         </dc:title>
         <dc:description>
            <rdf:Alt>
               <rdf:li xml:lang="x-default">video call, zoom, meet, skype, miro, coworker, communicate, remote, home, media and documents</rdf:li>
            </rdf:Alt>
         </dc:description>
         <cq:lastReplicationAction_scene7>Activate</cq:lastReplicationAction_scene7>
         <cq:lastReplicationAction_publish>Activate</cq:lastReplicationAction_publish>
         <cq:lastReplicated_publish>2024-02-09T21:59:25.498Z</cq:lastReplicated_publish>
         <cq:lastReplicatedBy>workflow-process-service</cq:lastReplicatedBy>
         <cq:lastReplicationAction>Activate</cq:lastReplicationAction>
         <cq:lastReplicatedBy_publish>workflow-process-service</cq:lastReplicatedBy_publish>
         <cq:isDelivered>true</cq:isDelivered>
         <cq:lastReplicated>2024-02-09T21:59:25.498Z</cq:lastReplicated>
         <cq:lastReplicatedBy_scene7>workflow-process-service</cq:lastReplicatedBy_scene7>
         <cq:lastReplicated_scene7>2024-02-09T21:59:25.498Z</cq:lastReplicated_scene7>
         <tiff:ImageLength>36</tiff:ImageLength>
         <tiff:ImageWidth>36</tiff:ImageWidth>
      </rdf:Description>
   </rdf:RDF>
</x:xmpmeta>
                                                                                                    
                                                                                                    
                                                                                                    
                                                                                                    
                                                                                                    
                                                                                                    
                                                                                                    
                                                                                                    
                                                                                                    
                                                                                                    
                                 
<?xpacket end="w"?></metadata>
<path d="M6,27.62H30a.62.62,0,0,0,.62-.62V12a.62.62,0,0,0-.62-.62H25a.62.62,0,0,0,0,1.24h4.38V26.38H27.56a4.11,4.11,0,0,0-2.19-3,2.62,2.62,0,1,0-3.74,0,4.11,4.11,0,0,0-2.19,3H16.56a4.11,4.11,0,0,0-2.19-3,2.62,2.62,0,1,0-3.74,0,4.11,4.11,0,0,0-2.19,3H6.62V12.62H11a.62.62,0,0,0,0-1.24H6a.62.62,0,0,0-.62.62V27A.62.62,0,0,0,6,27.62ZM22.12,21.5a1.38,1.38,0,0,1,2.75,0A1.38,1.38,0,0,1,22.12,21.5Zm1.38,2.62a2.87,2.87,0,0,1,2.8,2.26H20.7A2.87,2.87,0,0,1,23.5,24.12ZM11.12,21.5a1.38,1.38,0,0,1,2.75,0A1.38,1.38,0,0,1,11.12,21.5Zm1.38,2.62a2.87,2.87,0,0,1,2.8,2.26H9.7A2.87,2.87,0,0,1,12.5,24.12Z"/><path d="M32,29.38H4a.62.62,0,0,0,0,1.24H32A.62.62,0,0,0,32,29.38Z"/><path d="M15.07,16.41a1.42,1.42,0,0,0,1.36,1h3.14a1.42,1.42,0,0,0,1.36-1h0l.87-2.6a5.07,5.07,0,1,0-7.6,0ZM19.75,16a.2.2,0,0,1-.18.12H16.43a.2.2,0,0,1-.18-.12l-.61-1.86h4.72ZM18,6.62a3.84,3.84,0,0,1,2.92,6.29H15.08A3.84,3.84,0,0,1,18,6.62Z"/><path d="M19,18.38H17a.62.62,0,0,0,0,1.24h2A.62.62,0,0,0,19,18.38Z"/></svg>
